img/social-vk.svg

<svg width="18" height="18" viewBox="0 0 18 18" fill="none" xmlns="http://www.w3.org/2000/svg">
<path fill-rule="evenodd" clip-rule="evenodd" d="M9.07753 14.9943C9.64342 14.9943 9.64342 14.1141 9.64342 13.7727C9.64342 13.1619 10.2093 12.5511 10.7752 12.5511C11.3411 12.5511 12.3116 13.5986 13.0388 14.3835C13.6047 14.9943 13.6047 14.9943 14.1705 14.9943C14.7364 14.9943 15.8682 14.9943 15.8682 14.9943C15.8682 14.9943 17 14.9479 17 13.7727C17 13.391 16.6124 12.7435 15.3023 11.3295C14.1705 10.1079 13.5899 10.7389 15.3023 8.27556C16.3453 6.77545 17.1041 5.41643 16.974 5.0243C16.8495 4.64989 13.9487 4.05375 13.6047 4.61079C12.4729 6.44318 12.2652 6.89211 11.907 7.66477C11.3411 8.88636 11.2851 9.49715 10.7752 9.49715C10.2608 9.49715 10.2093 8.3116 10.2093 7.66477C10.2093 5.64548 10.4804 4.21744 9.64342 4C9.64342 4 8.51164 4 7.94575 4C7.03467 4 6.24808 4.61079 6.24808 4.61079C6.24808 4.61079 5.54581 5.20204 5.68219 5.22159C5.85083 5.24602 6.81397 4.96872 6.81397 5.83238C6.81397 6.44318 6.81397 7.05397 6.81397 7.05397C6.81397 7.05397 6.81907 9.49715 6.24808 9.49715C5.68219 9.49715 4.55041 7.05397 3.41863 5.22159C2.97441 4.50268 2.85274 4.61079 2.28685 4.61079C1.68022 4.61079 1.15564 4.63645 0.589179 4.63645C0.0232885 4.63645 -0.0491454 5.02552 0.0232886 5.22159C1.15507 8.27556 1.96825 10.1935 4.11864 12.6098C6.09076 14.8263 7.40816 14.9442 8.51164 14.9943C8.79459 15.0071 8.51164 14.9943 9.07753 14.9943Z" fill="white"/>
</svg>

<svg width="18" height="18" fill="none" xmlns="http://www.w3.org/2000/svg"><path fill-rule="evenodd" clip-rule="evenodd" d="M9.078 14.994c.565 0 .565-.88.565-1.221 0-.611.566-1.222 1.132-1.222s1.537 1.048 2.264 1.832c.566.611.566.611 1.132.611h1.697S17 14.948 17 13.773c0-.382-.388-1.03-1.698-2.444-1.131-1.221-1.712-.59 0-3.053 1.043-1.5 1.802-2.86 1.672-3.252-.125-.374-3.025-.97-3.37-.413-1.131 1.832-1.339 2.281-1.697 3.054-.566 1.221-.622 1.832-1.132 1.832-.514 0-.566-1.185-.566-1.832 0-2.02.271-3.448-.566-3.665H7.946c-.911 0-1.698.61-1.698.61s-.702.592-.566.612c.169.024 1.132-.253 1.132.61v1.222s.005 2.443-.566 2.443c-.566 0-1.698-2.443-2.83-4.275-.444-.72-.565-.611-1.131-.611-.607 0-1.131.025-1.698.025-.566 0-.638.39-.566.586 1.132 3.054 1.945 4.971 4.096 7.388 1.972 2.216 3.29 2.334 4.393 2.384.283.013 0 0 .566 0Z" fill="#fff"/></svg>
